images/ctoken-comp.svg

<svg height="250" viewBox="0 0 250 250" width="250" xmlns="http://www.w3.org/2000/svg" xmlns:xlink="http://www.w3.org/1999/xlink"><linearGradient id="a" gradientUnits="userSpaceOnUse" x1="93.74746205467" x2="132.94229334268" y1="12.992891668" y2="230.30405523532"><stop offset="0" stop-color="#27d3a2"/><stop offset="1" stop-color="#9388fd"/></linearGradient><path d="m249.390625 112.640625c6.808594 68.703125-43.367187 129.914063-112.070313 136.71875-68.699218 6.808594-129.910156-43.367187-136.714843-112.070313-6.808594-68.699218 43.367187-129.910156 112.066406-136.714843 68.703125-6.808594 129.914063 43.367187 136.71875 112.066406zm0 0" fill="#f9fafb"/><path d="m204.351562 221.546875c-19.101562 15.695313-42.429687 25.371094-67.03125 27.808594-32.988281 3.269531-65.925781-6.699219-91.566406-27.714844-25.636718-21.019531-41.878906-51.359375-45.144531-84.347656-2.4375-24.601563 2.472656-49.375 14.113281-71.183594s29.488282-39.679687 51.285156-51.34375c21.796876-11.667969 46.5625-16.609375 71.167969-14.199219 24.605469 2.40625 47.941407 12.058594 67.0625 27.730469l-25.214843 30.757813c-13.035157-10.683594-28.949219-17.265626-45.722657-18.90625-16.777343-1.644532-33.660156 1.726562-48.523437 9.679687-14.863282 7.953125-27.03125 20.136719-34.96875 35.007813-7.933594 14.871093-11.285156 31.757812-9.621094 48.535156 2.226562 22.492187 13.300781 43.175781 30.78125 57.507812 17.480469 14.328125 39.9375 21.125 62.429688 18.898438 16.773437-1.664063 32.679687-8.261719 45.703124-18.960938zm0 0" fill="url(#a)"/><path d="m124.996094 227.996094c56.902344 0 103.03125-46.128906 103.03125-103.03125s-46.128906-103.027344-103.03125-103.027344-103.027344 46.125-103.027344 103.027344 46.125 103.03125 103.027344 103.03125zm0 0" fill="#fff"/><path d="m77.476562 162.761719c-3.371093-2.058594-5.425781-5.722657-5.433593-9.671875v-22.003906c.003906-1.691407.914062-3.253907 2.378906-4.09375 1.46875-.839844 3.273437-.832032 4.738281.019531l49.660156 28.957031c2.90625 1.691406 4.691407 4.800781 4.695313 8.164062v22.800782c.003906 2.054687-1.105469 3.953125-2.894531 4.957031-1.792969 1.003906-3.988282.960937-5.738282-.113281zm74.027344-41.78125c2.902344 1.691406 4.691406 4.800781 4.691406 8.164062v46.265625c.003907 1.363282-.734374 2.625-1.925781 3.292969l-10.871093 6.121094c-.140626.074219-.285157.136719-.4375.179687v-25.6875c0-3.328125-1.75-6.410156-4.601563-8.121094l-43.613281-26.089843v-29.003907c.003906-1.691406.910156-3.25 2.378906-4.09375 1.46875-.839843 3.273438-.832031 4.734375.019532zm21.738282-34.171875c2.914062 1.691406 4.710937 4.808594 4.707031 8.179687v67.582031c-.007813 1.386719-.773438 2.660157-1.992188 3.320313l-10.304687 5.5625v-47.042969c0-3.324218-1.742188-6.398437-4.585938-8.113281l-44.582031-26.734375v-27.511719c0-.832031.21875-1.652343.632813-2.375 1.3125-2.257812 4.207031-3.023437 6.464843-1.714843zm0 0" fill="#283947" fill-rule="evenodd"/></svg>

<svg xmlns="http://www.w3.org/2000/svg" xmlns:xlink="http://www.w3.org/1999/xlink" width="250px" height="250px" viewBox="0 0 250 250" version="1.1">
<defs>
<linearGradient id="linear0" gradientUnits="userSpaceOnUse" x1="96.456001" y1="15.572" x2="136.020004" y2="234.929993" gradientTransform="matrix(0.990669,0,0,0.990669,-1.808508,-2.433806)">
<stop offset="0" style="stop-color:rgb(15.294118%,82.745099%,63.529414%);stop-opacity:1;"/>
<stop offset="1" style="stop-color:rgb(57.647061%,53.333336%,99.215686%);stop-opacity:1;"/>
</linearGradient>
</defs>
<g id="surface1">
<path style=" stroke:none;fill-rule:nonzero;fill:rgb(97.647059%,98.039216%,98.431373%);fill-opacity:1;" d="M 249.390625 112.640625 C 256.199219 181.34375 206.023438 242.554688 137.320312 249.359375 C 68.621094 256.167969 7.410156 205.992188 0.605469 137.289062 C -6.203125 68.589844 43.972656 7.378906 112.671875 0.574219 C 181.375 -6.234375 242.585938 43.941406 249.390625 112.640625 Z M 249.390625 112.640625 "/>
<path style=" stroke:none;fill-rule:nonzero;fill:url(#linear0);" d="M 204.351562 221.546875 C 185.25 237.242188 161.921875 246.917969 137.320312 249.355469 C 104.332031 252.625 71.394531 242.65625 45.753906 221.640625 C 20.117188 200.621094 3.875 170.28125 0.609375 137.292969 C -1.828125 112.691406 3.082031 87.917969 14.722656 66.109375 C 26.363281 44.300781 44.210938 26.429688 66.007812 14.765625 C 87.804688 3.097656 112.570312 -1.84375 137.175781 0.566406 C 161.78125 2.972656 185.117188 12.625 204.238281 28.296875 L 179.023438 59.054688 C 165.988281 48.371094 150.074219 41.789062 133.300781 40.148438 C 116.523438 38.503906 99.640625 41.875 84.777344 49.828125 C 69.914062 57.78125 57.746094 69.964844 49.808594 84.835938 C 41.875 99.707031 38.523438 116.59375 40.1875 133.371094 C 42.414062 155.863281 53.488281 176.546875 70.96875 190.878906 C 88.449219 205.207031 110.90625 212.003906 133.398438 209.777344 C 150.171875 208.113281 166.078125 201.515625 179.101562 190.816406 Z M 204.351562 221.546875 "/>
<path style=" stroke:none;fill-rule:nonzero;fill:rgb(100%,100%,100%);fill-opacity:1;" d="M 124.996094 227.996094 C 181.898438 227.996094 228.027344 181.867188 228.027344 124.964844 C 228.027344 68.0625 181.898438 21.9375 124.996094 21.9375 C 68.09375 21.9375 21.96875 68.0625 21.96875 124.964844 C 21.96875 181.867188 68.09375 227.996094 124.996094 227.996094 Z M 124.996094 227.996094 "/>
<path style=" stroke:none;fill-rule:evenodd;fill:rgb(15.686275%,22.352941%,27.843139%);fill-opacity:1;" d="M 77.476562 162.761719 C 74.105469 160.703125 72.050781 157.039062 72.042969 153.089844 L 72.042969 131.085938 C 72.046875 129.394531 72.957031 127.832031 74.421875 126.992188 C 75.890625 126.152344 77.695312 126.160156 79.160156 127.011719 L 128.820312 155.96875 C 131.726562 157.660156 133.511719 160.769531 133.515625 164.132812 L 133.515625 186.933594 C 133.519531 188.988281 132.410156 190.886719 130.621094 191.890625 C 128.828125 192.894531 126.632812 192.851562 124.882812 191.777344 Z M 151.503906 120.980469 C 154.40625 122.671875 156.195312 125.78125 156.195312 129.144531 L 156.195312 175.410156 C 156.199219 176.773438 155.460938 178.035156 154.269531 178.703125 L 143.398438 184.824219 C 143.257812 184.898438 143.113281 184.960938 142.960938 185.003906 L 142.960938 159.316406 C 142.960938 155.988281 141.210938 152.90625 138.359375 151.195312 L 94.746094 125.105469 L 94.746094 96.101562 C 94.75 94.410156 95.65625 92.851562 97.125 92.007812 C 98.59375 91.167969 100.398438 91.175781 101.859375 92.027344 Z M 173.242188 86.808594 C 176.15625 88.5 177.953125 91.617188 177.949219 94.988281 L 177.949219 162.570312 C 177.941406 163.957031 177.175781 165.230469 175.957031 165.890625 L 165.652344 171.453125 L 165.652344 124.410156 C 165.652344 121.085938 163.910156 118.011719 161.066406 116.296875 L 116.484375 89.5625 L 116.484375 62.050781 C 116.484375 61.21875 116.703125 60.398438 117.117188 59.675781 C 118.429688 57.417969 121.324219 56.652344 123.582031 57.960938 Z M 173.242188 86.808594 "/>
</g>
</svg>
